X: 84
M: C
L: 1/16
K: D
(!4!uA3.F) |\
vD4 (D3.F) "SEGUE"A4 A3B | d4 f3e {e}d4 d3B |\
uA4 |\
vd4 (f3.e) {e}d4 (d3.A) | "SEGUE"B4 d3B (!4!AF3) F3G) |\
(AF3) {F}E3D (Dd3) d3B | (AF3) F3D {F}E4 f3g |
a3g (fedc) {e}d4 d3A | v.B2(ugf edcB) A4 F3G |\


